src/assets/background/background-3.svg

<svg width="376" height="812" viewBox="0 0 376 812" fill="none" xmlns="http://www.w3.org/2000/svg">
<g clip-path="url(#clip0_234_2786)">
<rect width="376" height="812" fill="#FFA168"/>
<g clip-path="url(#clip1_234_2786)">
<path d="M172.247 582H0V812H376V467H355.111C345.039 467 336.875 475.165 336.875 485.236C336.875 495.308 328.71 503.473 318.638 503.473H236.247C218.574 503.473 204.247 517.8 204.247 535.473V550C204.247 567.673 189.92 582 172.247 582Z" fill="white"/>
<path fill-rule="evenodd" clip-rule="evenodd" d="M310.91 409.18C310.91 412.65 309.94 415.9 308.25 418.65C314.45 423.35 318.44 430.79 318.44 439.16C318.44 453.19 307.2 464.61 293.22 464.87V438.74L300.52 429.64C300.7 429.42 300.66 429.11 300.45 428.93C300.23 428.76 299.92 428.8 299.74 429.01L293.22 437.14V406.39C293.22 406.11 293 405.89 292.72 405.89C292.44 405.89 292.22 406.11 292.22 406.39V422.45L285.69 414.32C285.52 414.11 285.21 414.07 284.99 414.24C284.78 414.42 284.74 414.73 284.91 414.95L292.22 424.05V447.41L288.67 442.99C288.49 442.77 288.18 442.74 287.96 442.91C287.75 443.08 287.71 443.4 287.89 443.61L292.22 449.01V464.87C278.24 464.61 267 453.19 267 439.16C267 430.79 270.99 423.35 277.18 418.65C275.5 415.9 274.53 412.65 274.53 409.18C274.53 399.14 282.68 391 292.72 391C302.76 391 310.91 399.14 310.91 409.18ZM293.221 503.44V464.87H292.721H292.221V503.44C292.221 503.72 292.441 503.94 292.721 503.94C293.001 503.94 293.221 503.72 293.221 503.44Z" fill="white"/>
</g>
<path d="M160.7 140.15H42C42.4 128.76 51.75 119.66 63.24 119.66C66.62 119.66 69.82 120.45 72.66 121.86C78.83 111.75 89.97 105 102.68 105C118.61 105 132.07 115.6 136.38 130.14C138.97 127.79 142.39 126.36 146.16 126.36C153.95 126.36 160.31 132.47 160.7 140.16V140.15Z" stroke="white" stroke-width="0.78" stroke-linecap="round" stroke-linejoin="round"/>
<path d="M254.13 278.32C254.13 278.51 254.13 278.71 254.11 278.91H171C171 275.91 171.49 273.03 172.4 270.34C175.98 259.68 186.05 252 197.91 252C206.79 252 214.66 256.29 219.56 262.93C221.21 262.37 222.98 262.06 224.82 262.06C230.1 262.06 234.8 264.58 237.77 268.48C239.32 267.65 241.1 267.18 242.99 267.18C246.02 267.18 248.76 268.38 250.77 270.34C252.85 272.37 254.14 275.2 254.14 278.33L254.13 278.32Z" stroke="white" stroke-width="0.78" stroke-linecap="round" stroke-linejoin="round"/>
</g>
<defs>
<clipPath id="clip0_234_2786">
<rect width="376" height="812" fill="white"/>
</clipPath>
<clipPath id="clip1_234_2786">
<rect width="376" height="421" fill="white" transform="translate(0 391)"/>
</clipPath>
</defs>
</svg>

<svg width="376" height="812" viewBox="0 0 376 812" fill="none" xmlns="http://www.w3.org/2000/svg"><g clip-path="url(#a)"><path fill="#FFA168" d="M0 0h376v812H0z"/><g clip-path="url(#b)" fill="#fff"><path d="M172.247 582H0v230h376V467h-20.889c-10.072 0-18.236 8.165-18.236 18.236s-8.165 18.237-18.237 18.237h-82.391c-17.673 0-32 14.327-32 32V550c0 17.673-14.327 32-32 32"/><path fill-rule="evenodd" clip-rule="evenodd" d="M310.91 409.18c0 3.47-.97 6.72-2.66 9.47 6.2 4.7 10.19 12.14 10.19 20.51 0 14.03-11.24 25.45-25.22 25.71v-26.13l7.3-9.1c.18-.22.14-.53-.07-.71a.517.517 0 0 0-.71.08l-6.52 8.13v-30.75c0-.28-.22-.5-.5-.5s-.5.22-.5.5v16.06l-6.53-8.13a.504.504 0 0 0-.7-.08c-.21.18-.25.49-.08.71l7.31 9.1v23.36l-3.55-4.42a.51.51 0 0 0-.71-.08c-.21.17-.25.49-.07.7l4.33 5.4v15.86c-13.98-.26-25.22-11.68-25.22-25.71 0-8.37 3.99-15.81 10.18-20.51-1.68-2.75-2.65-6-2.65-9.47 0-10.04 8.15-18.18 18.19-18.18s18.19 8.14 18.19 18.18m-17.689 94.26v-38.57h-1v38.57c0 .28.22.5.5.5s.5-.22.5-.5"/></g><path d="M160.7 140.15H42c.4-11.39 9.75-20.49 21.24-20.49 3.38 0 6.58.79 9.42 2.2C78.83 111.75 89.97 105 102.68 105c15.93 0 29.39 10.6 33.7 25.14 2.59-2.35 6.01-3.78 9.78-3.78 7.79 0 14.15 6.11 14.54 13.8zm93.43 138.17c0 .19 0 .39-.02.59H171c0-3 .49-5.88 1.4-8.57 3.58-10.66 13.65-18.34 25.51-18.34 8.88 0 16.75 4.29 21.65 10.93 1.65-.56 3.42-.87 5.26-.87 5.28 0 9.98 2.52 12.95 6.42 1.55-.83 3.33-1.3 5.22-1.3 3.03 0 5.77 1.2 7.78 3.16a11.13 11.13 0 0 1 3.37 7.99z" stroke="#fff" stroke-width=".78" stroke-linecap="round" stroke-linejoin="round"/></g><defs><clipPath id="a"><path fill="#fff" d="M0 0h376v812H0z"/></clipPath><clipPath id="b"><path fill="#fff" d="M0 391h376v421H0z"/></clipPath></defs></svg>
